X:113
T:The Pipe On The Hob #1
R: jig
M: 6/8
L: 1/8
K: Dmix
|: d^cd A2G | F2D DED | EDE c2E | E2D D3 |
dcB cBA | BAG A2G | EDE c2E | E2D D3 :|
|: f2d d^cd | f2d d^cd | ecB c3 | ece age |
|[1 f2d d^cd | f2d d^cd | ed^c eag | fd^c d3 :|
|[2 fef gfg | agf gfe | fed eag | ed^c d3 ||

